X:1
T:Title
%%score ( 1 2 ) ( 3 4 )
L:1/8
Q:1/4=103
M:6/8
K:Eb
V:1 treble nm="Grand Piano, Soprano"
V:2 treble 
V:3 bass nm="Choir Pad, Bryce Canyon, 1894"
V:4 bass 
V:1
 [EB] [EB]2 [Ec]BG | E [DF]2- [DF] E2 | [EG] F2 [EF] [DB]2 | [FA] [EG]2- [EG]2- [EG]/ z/ | %4
w: By~Benjamin~Carl~Unseld,~1894 * * * *||||
 [EB] [EB]2 [Ec]BG | E [DF]2- [DF] E2 | E [EG]2 [EG]FG | [DF] E2- E2- E/ z/ | %8
w: ||||
 [EG] [EA]2 [EA] [Ac]2 | [Ac] [GB]2- [GB] [Ge]2 | [Ge] [Fd]2 [Fd]ed | [Ec] [DB]2- [DB]2- [DB]/ z/ | %12
w: ||||
 [GB] [Ge]2 [GB][GB][FA] | [EG] A2 B [Ec]2 | [Ec] [EB]2 [EG] [DG]2 | [DF] E2- E3- | E3 z3 |] %17
w: |||||
V:2
 z3 z E2 | x6 | x6 | x6 | z3 z E2 | x6 | z3 z D2 | x6 | x6 | x6 | z3 z F2 | x6 | x6 | %13
 z E2- E/ z/ z z | x6 | x6 | x6 |] %17
V:3
 [E,G,] [E,G,]2 [E,A,]G,B, | [E,G,] [B,,A,]2- [B,,A,] [E,G,]2 | [E,B,] [D,B,]2 [C,=A,] [B,,B,]2 | %3
 [D,B,] [E,B,]2- [E,B,]2- [E,B,]/ z/ | [E,G,] [E,G,]2 [E,A,]G,B, | %5
 [E,G,] [B,,A,]2- [B,,A,] [E,G,]2 | [C,=A,] [B,,B,]2 [B,,B,]_A,B, | %7
 [B,,A,] [E,G,]2- [E,G,]2- [E,G,]/ z/ | [E,B,] [A,C]2 [A,C] [A,E]2 | [A,E] [E,E]2- [E,E] [E,B,]2 | %10
 [E,B,] [F,B,]2 [F,B,]CB, | [F,=A,] [B,,B,]2- [B,,B,]2- [B,,B,]/ z/ | [E,B,] [E,B,]2 [E,B,]B,C | %13
 [E,_D] C2 B, A,2 | [A,,A,] [B,,G,]2 [B,,B,] [B,,B,]2 | [B,,A,] [E,G,]2- [E,G,]3- | [E,G,]3 z3 |] %17
V:4
 z3 z E,2 | x6 | x6 | x6 | z3 z E,2 | x6 | z3 z B,,2 | x6 | x6 | x6 | z3 z F,2 | x6 | z3 z E,2 | %13
 z A,2- A,/ z/ z z | x6 | x6 | x6 |] %17

